images/svg/facebook.svg

<svg width="22" height="24" viewBox="0 0 22 24" fill="none" xmlns="http://www.w3.org/2000/svg">
<g clip-path="url(#clip0_14_2000)">
<path d="M21.6562 12C21.6562 5.57812 16.8867 0.375 11 0.375C5.11328 0.375 0.34375 5.57812 0.34375 12C0.34375 17.8022 4.24059 22.6116 9.33496 23.4844V15.3605H6.62793V12H9.33496V9.43875C9.33496 6.52547 10.9248 4.91625 13.3598 4.91625C14.526 4.91625 15.7455 5.14313 15.7455 5.14313V8.0025H14.4014C13.078 8.0025 12.665 8.89875 12.665 9.81797V12H15.6204L15.1478 15.3605H12.665V23.4844C17.7594 22.6116 21.6562 17.8022 21.6562 12Z" fill="white"/>
</g>
<defs>
<clipPath id="clip0_14_2000">
<rect width="22" height="24" fill="white"/>
</clipPath>
</defs>
</svg>

<svg xmlns="http://www.w3.org/2000/svg" width="22" height="24" fill="none"><g clip-path="url(#a)"><path fill="#fff" d="M21.656 12C21.656 5.578 16.886.375 11 .375 5.113.375.344 5.578.344 12c0 5.802 3.897 10.612 8.991 11.484V15.36H6.628V12h2.707V9.439c0-2.914 1.59-4.523 4.025-4.523 1.166 0 2.386.227 2.386.227v2.86H14.4c-1.323 0-1.736.896-1.736 1.815V12h2.955l-.472 3.36h-2.483v8.124c5.094-.872 8.991-5.682 8.991-11.484Z"/></g><defs><clipPath id="a"><path fill="#fff" d="M0 0h22v24H0z"/></clipPath></defs></svg>
